www/assets/icons/medical_information.svg

<svg xmlns="http://www.w3.org/2000/svg" width="24" height="24" viewBox="0 0 24 24" fill='currentColor'><path d="M20 7h-5V4c0-1.1-.9-2-2-2h-2c-1.1 0-2 .9-2 2v3H4c-1.1 0-2 .9-2 2v11c0 1.1.9 2 2 2h16c1.1 0 2-.9 2-2V9c0-1.1-.9-2-2-2m-9-3h2v5h-2zm0 12H9v2H7v-2H5v-2h2v-2h2v2h2zm2-1.5V13h6v1.5zm0 3V16h4v1.5z"/></svg>

<svg width="24" height="24" viewBox="0 0 24 24" xmlns="http://www.w3.org/2000/svg" fill='currentColor'><path d="M20 7H15V4C15 2.9 14.1 2 13 2H11C9.9 2 9 2.9 9 4V7H4C2.9 7 2 7.9 2 9V20C2 21.1 2.9 22 4 22H20C21.1 22 22 21.1 22 20V9C22 7.9 21.1 7 20 7ZM11 4H13V9H11V4ZM11 16H9V18H7V16H5V14H7V12H9V14H11V16ZM13 14.5V13H19V14.5H13ZM13 17.5V16H17V17.5H13Z"/></svg>
